X:1
T:O wrede fortune
T:O wrede fortune
T:Tielman Susato
C:Tielman Susato
%%score [ 1 2 3 4 ]
L:1/8
Q:1/4=120
M:2/2
K:F
V:1 treble nm="Soprano" snm="S"
V:2 treble nm="Alto" snm="A"
V:3 treble-8 nm="Tenor" snm="T"
V:4 bass nm="Bass" snm="B"
V:1
 z8 | z8 | z8 | z8 | z2 d2 d2 dd | c3 B A2 G2- | G2 F2 E2 E2 | D2 d2 d2 dd | c3 c B2 A2- | %9
w: ||||O wre- de for-|tu- ne, ghy doet|_ my treu- ren|nu, O wre- de for-|tu- ne, ghy doet|
 AG G4 F2 | G4 z2 G2- | GABc dcde | f3 e d2 cB | A4 G2 _e2 | ed d4 c2 | d8- | d4 z2 d2 | %17
w: _ my treu- ren|nu, daer|_ ick eens die lief- ste plach te|we- * * * *|||sen,|_ die|
 d2 d2 f3 e | d2 d2 cBAG | F2 B4 A2 | B8 | z2 d2 d2 d2 | c2 c2 B3 A/G/ | F2 B4 A2 | G2 B2 ABcB | %25
w: is van my _|_ ghe- wor- * * *|* * den|schu,|ick meyn- de|dat icks noyt _ _|_ en ver-|dien- * * * * *|
 AG G4 F2 | G8 | z8 | G2 GG G2 GG | AGAB cBAG | F2 f2 f2 f2 | e2 e2 d2 e2- | ed d4 c2 | d8- | %34
w: |de,||daer is een an- der int|her- * te ghe- re- * * *|sen, daer is een|an- der int her-|* te ghe- re-|sen,|
 d4 z2 d2 | d2 d2 f3 e | d2 d2 cBAG | F2 B4 A2 | B8 | z2 d2 d2 d2 | c2 c2 B3 A/G/ | F2 B4 A2 | %42
w: _ dit|bin ick da- ge-|licx aen- sien- * * *||de,|hoe soud ick|dies ghe- ne- * *||
 G2 B2 ABcB | AG G4 F2 | G8 |] %45
w: ||sen?|
V:2
 z8 | z8 | z8 | z2 G2 G2 GG |"^b" F3 E D2 F2- | F2 E2 C2 E2- | ED D4 C2 | D2 B2 B2 BB | %8
w: |||O wre- de for-|tu- ne, ghy doet|_ my treu- *|* * * ren|nu, O wre- de for-|
 A3 A G2 F2- | FE DC D3 C | B,2 _E4 E2 | D4 z2 D2- | DEFG AGAB | c3 B G3 A | B2 G2 A2 z A | %15
w: tu- ne, ghy doet|_ my treu- * * *|* * ren|nu, daer|_ ick eens die lief- ste plach te|we- * * *|* * sen, die|
 A2 A2 B3 A | G2 G2 FE DC | B,2 B,2 F2 F2 | B4 A4 |"^b" B2 F3 E F2 | D4 G4 | G2 G2 F3 G | %22
w: is van my _|_ ghe- wor- * den _|schu, die is van|my ghe-|wor- * * den|schu, hoe|soud ick dies ge-|
 A2 G3 F/E/ D2 | F4 F2 F2 | D3 E F2 G2 | F2 D2 z2 D2- | D2 DD D2 DD | E2 FF G3 F | E2 DC D2 E2 | %29
w: ne- * * * sen,|hoe soud ick|dies _ _ ge-|ne- sen, daer|_ is een an- der int|hert te ghe- re- *||
 F4 F2 F2- | FEDC D2 A2 | G2 GA B4- | B2 G2 A2 z A | A2 A2 B3 A | G2 G2 FEDC | B,2 B,2 F2 F2 | %36
w: sen, ghe- re-|* * * * sen, int|her- te ghe- re-|* * sen, dit|bin ick da- ge-|licx aen- sien- * * *|de, dit bin ick|
 B3 B A2 A2 |"^b" B2 F3 E F2 | D4 G4- | G2 G2 F3 G | A2 G3 F/E/ D2 | F4 F2 F2 | D3 E F2 G2 | %43
w: da- ge- licx aen-|sien- * * *|de, och,|_ ick meyn- de|dat icx _ _ _|noyt en ver-|dien- * * *|
 F2 D3 C D2 | B,8 |] %45
w: |de.|
V:3
 z8 | z4 d4 | d2 dd c3 B | A2 G3 ABc | d3 c B2 A2 | A4 z4 | z4 g4 | g2 gg f4- | f2 e2 d4 | %9
w: |O|wre- de for- tu- ne,|ghy doet _ _ _|my _ treu- ren|nu,|O|wre- de for- tu-|* ne, ghy|
 c2 B2 A2 A2 | G2 c4 BA | B2 G3 ABc | dcde f3 e/d/ |"^b" c3 d ef g2- | gfed e4 | d8- | d8 | %17
w: doet my treu- ren|nu, treu- ren- *|nu, daer ick eens die|lief- ste plach te we- * *|||sen,|_|
 z4 z2 d2 | d2 d2 f3 e | d3 c/B/ c2 c2 | B8 | z2 B3 cde | f2 e2 g2 fe | d2 d2 c2 c2 | Bc dB cded | %25
w: die|is van my ghe-|wor- * * * den|schu,|och, _ _ _|_ ick meyn- * *|de dat icks noyt|en _ ver- * dien- * * *|
 cBAG A4 | G8 | z8 | z4 z2 c2 | cc c2 cc d2- | dc de f3 e/d/ | cdef g4 | f2 d2 e4 | d8- | d8 | %35
w: |de,||daer|is een an- der int her-|* te ghe- * re- * *|||sen,|_|
 z4 z2 d2 | d2 d2 f3 e | d2 d2 c4 | B8 | z2 B3 cde | f2 e2 g2 fe | d2 d2 c2 c2 | BcdB cded | %43
w: dit|bin ick da- ge-|licx aen- sien-|de,|och, _ _ _|_ hoe soud _ _|_ ick dies ghe-|ne- * * * * * * *|
 cBAG A4 | G8 |] %45
w: |sen?|
V:4
 G,4 G,2 G,2 |"^b" F,3 E, D,2 B,,2 | B,,C,D,E, F,G, A,2 | F,2 G,2 _E,4 | D,8 | z8 | C,6 C,2 | %7
w: O wre- de|for- tu- ne, ghy|doet _ _ _ _ _ _|my treu- en|nu,||O wre-|
 G,2 G,2 B,4 | F,2 F,2 G,2 D,2 | F,2 G,2 D,4 |"^b" z2 C,3 D,E,F, | G,F,G,A, B,4 | B,,2 D,3 E,F,G, | %13
w: de for- tu-|ne, ghy doet my|treu- ren nu,|daer ick eens die|lief- ste plach te we-|sen, daer ick eens die|
 A,G,A,B, C3 B, | G,2 B,2 A,4 | D,4 z2 G,2 | G,2 G,2 B,3 A, | G,2 G,2 F,E,D,C, | %18
w: lief- ste plach te we- *||sen, die|is van my ghe-|wor- den schu, _ _ _|
 B,,2 B,,2 F,2 F,2 | B,3 A, F,2 F,2 | B,,4 z2 _E,2- | E,F,G,A, B,4 | A,2 C2 G,2 B,2 | %23
w: _ die is van|my ghe- wor- den|schu, och,|_ _ _ _ _|ick meyn- de dat|
 B,2 B,2 F,2 F,2 | G,4 F,2 C,2 | F,2 G,2 D,4 | z2 G,2 G,G, G,2 | G,G, A,2 B,B, C2- | %28
w: icks noyt en ver-|dien- * *|* * de,|daer is een an-|der int her- te ghe- re-|
 C2 B,A, G,2 C,2 | F,3 G, A,2 D,2 | B,2 B,B, B,2 A,B, | C4 G,2 G,2 | B,4 A,4 | D,4 z2 G,2 | %34
w: * * * * sen,|ghe- * re- sen,|daer is een an- der int|her- te ghe-|re- *|sen, dit|
 G,2 G,2 B,3 A, | G,2 G,2 F,E,D,C, | B,,2 B,,2 F,2 F,2 | B,3 B, F,2 F,2 | G,4 E,2 _E,2 | %39
w: bin ick da- ge-|licx aen- sien- * * *|de, dit bin ick|da- ge- licx aen-|sien- de, och,|
"^#" E,F,G,A, B,4 | A,2 C2 G,2 B,2 | B,2 B,2 F,2 F,2 | G,4 F,2 C,2 | F,2 G,2 D,4 | G,8 |] %45
w: _ _ _ _ _|hoe soud ick dies|ghe- ne- sen, hoe|soud ick dies|ghe- ne- *|sen?|

